svg/300/outlined/iframe.svg

<svg xmlns="http://www.w3.org/2000/svg" width="48" height="48" viewBox="0 -960 960 960"><path d="M453.846-413.846h212.308v-92.308H453.846v92.308Zm-47.692 47.692v-187.692h307.692v187.692H406.154Zm-248.46 186.153q-23.529 0-40.611-17.082-17.082-17.082-17.082-40.611v-484.612q0-23.529 17.082-40.611 17.082-17.082 40.611-17.082h644.612q23.529 0 40.611 17.082 17.082 17.082 17.082 40.611v484.612q0 23.529-17.082 40.611-17.082 17.082-40.611 17.082H157.694Zm0-45.384h644.612q4.616 0 8.463-3.846 3.846-3.847 3.846-8.463v-414.075h-669.23v414.075q0 4.616 3.846 8.463 3.847 3.846 8.463 3.846Z"/></svg>

<svg xmlns="http://www.w3.org/2000/svg" width="48" height="48" viewBox="0 -960 960 960"><path d="M453.85-413.85h212.3v-92.3h-212.3v92.3Zm-47.7 47.7v-187.7h307.7v187.7h-307.7ZM157.69-180q-23.53 0-40.61-17.08T100-237.69v-484.62q0-23.53 17.08-40.61T157.69-780h644.62q23.53 0 40.61 17.08T860-722.31v484.62q0 23.53-17.08 40.61T802.31-180H157.69Zm0-45.39h644.62q4.61 0 8.46-3.84 3.84-3.85 3.84-8.46v-414.08H145.39v414.08q0 4.61 3.84 8.46 3.85 3.84 8.46 3.84Z"/></svg>
